icons/linear-ele-digital-link-connection.svg

<svg xmlns="http://www.w3.org/2000/svg" width="32px" height="32px" viewBox="0 0 32 32" version="1.1">
    <title>linear-ele-digital-link-connection</title>
    <g id="linear-ele-digital-link-connection" stroke-width="1" fill-rule="evenodd">
        <path d="M20,12 L20,14 L14,14 C11.790861,14 10,15.790861 10,18 L10,22 C10,24.209139 11.790861,26 14,26 L24,26 C26.209139,26 28,24.209139 28,22 L28,18 C28,16.5198932 27.1961002,15.2275472 26.0011092,14.5357707 L26.0006859,12.3416539 C28.3307123,13.1655203 30,15.3878187 30,18 L30,22 C30,25.3137085 27.3137085,28 24,28 L14,28 C10.6862915,28 8,25.3137085 8,22 L8,18 C8,14.6862915 10.6862915,12 14,12 L20,12 Z M18,4 C21.3137085,4 24,6.6862915 24,10 L24,14 C24,17.3137085 21.3137085,20 18,20 L12,20 L12,18 L18,18 C20.209139,18 22,16.209139 22,14 L22,10 C22,7.790861 20.209139,6 18,6 L8,6 C5.790861,6 4,7.790861 4,10 L4,14 C4,15.480515 4.80434324,16.7731656 5.99987956,17.4648015 L6.00032181,19.6587023 C3.66976896,18.8351204 2,16.6125579 2,14 L2,10 C2,6.6862915 4.6862915,4 8,4 L18,4 Z" id="&#24418;&#29366;" fill-rule="nonzero" />
    </g>
</svg>

<svg xmlns="http://www.w3.org/2000/svg" viewBox="0 0 32 32"><path fill="currentColor" d="M20 12v2h-6a4 4 0 0 0-4 4v4a4 4 0 0 0 4 4h10a4 4 0 0 0 4-4v-4c0-1.48-.804-2.772-1.999-3.464v-2.194C28.33 13.166 30 15.388 30 18v4a6 6 0 0 1-6 6H14a6 6 0 0 1-6-6v-4a6 6 0 0 1 6-6zm-2-8a6 6 0 0 1 6 6v4a6 6 0 0 1-6 6h-6v-2h6a4 4 0 0 0 4-4v-4a4 4 0 0 0-4-4H8a4 4 0 0 0-4 4v4c0 1.48.804 2.773 2 3.465v2.194A6.002 6.002 0 0 1 2 14v-4a6 6 0 0 1 6-6z"/></svg>
